img/icons/document/new.svg

<svg viewBox="0 0 16 16" xmlns="http://www.w3.org/2000/svg"><path d="m7.5 4c0.276 0 0.5 0.224 0.5 0.5v2.5h2.5c0.276 0 0.5 0.224 0.5 0.5 0 0.276-0.224 0.5-0.5 0.5h-2.5v2.5c0 0.276-0.224 0.5-0.5 0.5s-0.5-0.224-0.5-0.5v-2.5l-2.5-1e-5c-0.276 0-0.5-0.224-0.5-0.5 0-0.276 0.224-0.5 0.5-0.5l2.5 1e-5v-2.5c0-0.276 0.224-0.5 0.5-0.5z" fill="#000"/><path d="m0 6.4c0-2.24 0-3.36 0.436-4.22 0.383-0.753 0.995-1.36 1.75-1.75 0.856-0.436 1.98-0.436 4.22-0.436h2.2c2.24 0 3.36 0 4.22 0.436 0.753 0.383 1.36 0.995 1.75 1.75 0.436 0.856 0.436 1.98 0.436 4.22v2.2c0 2.24 0 3.36-0.436 4.22-0.384 0.753-0.995 1.36-1.75 1.75-0.856 0.436-1.98 0.436-4.22 0.436h-2.2c-2.24 0-3.36 0-4.22-0.436-0.753-0.384-1.36-0.995-1.75-1.75-0.436-0.856-0.436-1.98-0.436-4.22v-2.2zm6.4-5.4h2.2c1.14 0 1.93 7.7e-4 2.55 0.0512 0.605 0.0494 0.953 0.142 1.22 0.276 0.564 0.288 1.02 0.747 1.31 1.31 0.134 0.263 0.226 0.611 0.276 1.22 0.0504 0.617 0.0512 1.41 0.0512 2.55v2.2c0 1.14-8e-4 1.93-0.0512 2.55-0.0494 0.605-0.142 0.953-0.276 1.22-0.288 0.564-0.746 1.02-1.31 1.31-0.263 0.134-0.611 0.226-1.22 0.276-0.617 0.0504-1.41 0.0512-2.55 0.0512h-2.2c-1.14 0-1.93-8e-4 -2.55-0.0512-0.605-0.0494-0.953-0.142-1.22-0.276-0.564-0.288-1.02-0.746-1.31-1.31-0.134-0.263-0.226-0.611-0.276-1.22-0.0504-0.617-0.0512-1.41-0.0512-2.55v-2.2c0-1.14 7.8e-4 -1.93 0.0512-2.55 0.0494-0.605 0.142-0.953 0.276-1.22 0.288-0.564 0.747-1.02 1.31-1.31 0.263-0.134 0.611-0.226 1.22-0.276 0.617-0.0504 1.41-0.0512 2.55-0.0512z" clip-rule="evenodd" fill="#000" fill-rule="evenodd"/></svg>

<svg xmlns="http://www.w3.org/2000/svg" viewBox="0 0 16 16" fill="none">
  <path fill="#000"
    d="M7.5 4a.5.5 0 0 1 .5.5V7h2.5a.5.5 0 0 1 0 1H8v2.5a.5.5 0 0 1-1 0V8H4.5a.5.5 0 1 1 0-1H7V4.5a.5.5 0 0 1 .5-.5Z" />
  <path fill="#000" fill-rule="evenodd"
    d="M0 6.4c0-2.24 0-3.36.436-4.216A4 4 0 0 1 2.184.436C3.04 0 4.16 0 6.4 0h2.2c2.24 0 3.36 0 4.216.436a4 4 0 0 1 1.748 1.748C15 3.04 15 4.16 15 6.4v2.2c0 2.24 0 3.36-.436 4.216a4 4 0 0 1-1.748 1.748C11.96 15 10.84 15 8.6 15H6.4c-2.24 0-3.36 0-4.216-.436a4 4 0 0 1-1.748-1.748C0 11.961 0 10.84 0 8.6V6.4ZM6.4 1h2.2c1.137 0 1.929.001 2.546.051.605.05.953.142 1.216.276a3 3 0 0 1 1.311 1.311c.134.264.226.611.276 1.217.05.616.051 1.409.051 2.545v2.2c0 1.137 0 1.93-.051 2.546-.05.605-.142.953-.276 1.216a3 3 0 0 1-1.311 1.311c-.263.134-.611.227-1.216.276C10.529 14 9.736 14 8.6 14H6.4c-1.137 0-1.929 0-2.546-.05-.605-.05-.953-.143-1.216-.277a3 3 0 0 1-1.311-1.31c-.134-.264-.226-.612-.276-1.217C1.001 10.53 1 9.736 1 8.6V6.4c0-1.136 0-1.929.051-2.545.05-.606.142-.953.276-1.217a3 3 0 0 1 1.311-1.31c.263-.135.611-.227 1.216-.277.617-.05 1.41-.05 2.546-.05Z"
    clip-rule="evenodd" />
</svg>
